assets/ios/swift/Icons.xcassets/voiceCall.imageset/voiceCall.svg

<svg width="24" height="24" viewBox="0 0 24 24" fill="none" xmlns="http://www.w3.org/2000/svg">
<path d="M20.9579 16.3737L20.9967 19.9012C20.9967 20.1855 20.8868 20.4375 20.6672 20.6571C20.4475 20.8768 20.1955 20.9866 19.9113 20.9866C17.6242 21.0771 15.434 20.7088 13.3407 19.8818C11.2474 19.0549 9.39322 17.8338 7.77805 16.2186C6.16287 14.6034 4.94502 12.746 4.12451 10.6463C3.304 8.54652 2.93251 6.35957 3.01004 4.0854C3.01004 3.80113 3.11987 3.54916 3.33954 3.3295C3.5592 3.10983 3.81117 3 4.09544 3L7.62299 3.03877C7.90726 3.03877 8.14954 3.12598 8.34982 3.30042C8.5501 3.47486 8.66962 3.69776 8.70839 3.96911L9.25109 7.92306C9.27693 8.10396 9.26401 8.27194 9.21232 8.427C9.16064 8.58206 9.07019 8.72419 8.94097 8.85341L7.30164 10.4927C7.63759 11.1647 8.022 11.801 8.45487 12.4019C8.88774 13.0027 9.89884 14.0978 9.89884 14.0978C9.89884 14.0978 10.9939 15.1089 11.5948 15.5418C12.1956 15.9747 12.832 16.3591 13.5039 16.695L15.1433 15.0557C15.2725 14.9265 15.4146 14.836 15.5697 14.7843C15.7247 14.7327 15.8927 14.7197 16.0736 14.7456L20.0276 15.2883C20.2989 15.327 20.5218 15.4466 20.6962 15.6468C20.8707 15.8471 20.9579 16.0894 20.9579 16.3737Z" fill="black"/>
</svg>

<svg xmlns="http://www.w3.org/2000/svg" width="24" height="24" fill="black" viewBox="0 0 24 24">
  <path d="m20.958 16.374.039 3.527c0 .284-.11.536-.33.756-.22.22-.472.33-.756.33a15.97 15.97 0 0 1-6.57-1.105 16.225 16.225 0 0 1-5.563-3.663 16.084 16.084 0 0 1-3.653-5.573 16.313 16.313 0 0 1-1.115-6.56c0-.285.11-.537.33-.757.22-.22.471-.33.755-.33l3.528.04a1.069 1.069 0 0 1 1.085.93l.543 3.954c.026.18.013.349-.039.504a1.088 1.088 0 0 1-.271.426l-1.64 1.64c.337.672.721 1.308 1.154 1.909.433.6 1.444 1.696 1.444 1.696s1.095 1.01 1.696 1.444c.6.433 1.237.817 1.909 1.153l1.64-1.64a1.07 1.07 0 0 1 .426-.27c.155-.052.323-.065.504-.04l3.954.543a1.068 1.068 0 0 1 .93 1.085Z"/>
</svg>
